icons/maia/apps/scalable/nvvp.svg

<?xml version="1.0" encoding="UTF-8" standalone="no"?>
<svg
   xmlns:dc="http://purl.org/dc/elements/1.1/"
   xmlns:cc="http://creativecommons.org/ns#"
   xmlns:rdf="http://www.w3.org/1999/02/22-rdf-syntax-ns#"
   xmlns:svg="http://www.w3.org/2000/svg"
   xmlns="http://www.w3.org/2000/svg"
   viewBox="0 0 48 48"
   id="svg2"
   version="1.1">
  <metadata
     id="metadata59">
    <rdf:RDF>
      <cc:Work
         rdf:about="">
        <dc:format>image/svg+xml</dc:format>
        <dc:type
           rdf:resource="http://purl.org/dc/dcmitype/StillImage" />
        <dc:title></dc:title>
      </cc:Work>
    </rdf:RDF>
  </metadata>
  <defs
     id="defs4">
    <linearGradient
       id="linearGradient3764"
       x1="1"
       x2="47"
       gradientUnits="userSpaceOnUse"
       gradientTransform="matrix(0,-1,1,0,-1.5e-6,47.999998)">
      <stop
         style="stop-color:#292929;stop-opacity:1"
         id="stop7" />
      <stop
         offset="1"
         style="stop-color:#333333;stop-opacity:1"
         id="stop9" />
    </linearGradient>
    <linearGradient
       id="linearGradient3764-5"
       x1="1"
       x2="47"
       gradientUnits="userSpaceOnUse"
       gradientTransform="matrix(0,-1,1,0,-1.5e-6,47.999998)">
      <stop
         style="stop-color:#292929;stop-opacity:1"
         id="stop7-3" />
      <stop
         offset="1"
         style="stop-color:#333333;stop-opacity:1"
         id="stop9-9" />
    </linearGradient>
  </defs>
  <g
     id="g21">
    <path
       d="m 36.31 5 c 5.859 4.062 9.688 10.831 9.688 18.5 c 0 12.426 -10.07 22.5 -22.5 22.5 c -7.669 0 -14.438 -3.828 -18.5 -9.688 c 1.037 1.822 2.306 3.499 3.781 4.969 c 4.085 3.712 9.514 5.969 15.469 5.969 c 12.703 0 23 -10.298 23 -23 c 0 -5.954 -2.256 -11.384 -5.969 -15.469 c -1.469 -1.475 -3.147 -2.744 -4.969 -3.781 z m 4.969 3.781 c 3.854 4.113 6.219 9.637 6.219 15.719 c 0 12.703 -10.297 23 -23 23 c -6.081 0 -11.606 -2.364 -15.719 -6.219 c 4.16 4.144 9.883 6.719 16.219 6.719 c 12.703 0 23 -10.298 23 -23 c 0 -6.335 -2.575 -12.06 -6.719 -16.219 z"
       style="opacity:0.05"
       id="path23" />
    <path
       d="m 41.28 8.781 c 3.712 4.085 5.969 9.514 5.969 15.469 c 0 12.703 -10.297 23 -23 23 c -5.954 0 -11.384 -2.256 -15.469 -5.969 c 4.113 3.854 9.637 6.219 15.719 6.219 c 12.703 0 23 -10.298 23 -23 c 0 -6.081 -2.364 -11.606 -6.219 -15.719 z"
       style="opacity:0.1"
       id="path25" />
    <path
       d="m 31.25 2.375 c 8.615 3.154 14.75 11.417 14.75 21.13 c 0 12.426 -10.07 22.5 -22.5 22.5 c -9.708 0 -17.971 -6.135 -21.12 -14.75 a 23 23 0 0 0 44.875 -7 a 23 23 0 0 0 -16 -21.875 z"
       style="opacity:0.2"
       id="path27" />
  </g>
  <g
     id="g29">
    <path
       d="m 24 1 c 12.703 0 23 10.297 23 23 c 0 12.703 -10.297 23 -23 23 -12.703 0 -23 -10.297 -23 -23 0 -12.703 10.297 -23 23 -23 z"
       style="fill:url(#linearGradient3764);fill-opacity:1"
       id="path31" />
  </g>
  <path
     id="path8370-8"
     d="M 21 14 L 21 20 L 31 20 L 32 21 L 33 20 L 35 20 L 35 14 L 21 14 z M 32 21 L 18 29 L 14 26 L 2.5175781 32.216797 C 2.8383955 33.055055 3.2063579 33.868449 3.6191406 34.65625 L 14 29 L 18 32 L 32 24 L 34 25 L 36 24 L 41 28 L 46.972656 22.880859 C 46.928096 21.951034 46.821693 21.038288 46.669922 20.140625 L 41 25 L 36 21 L 34 22 L 32 21 z "
     style="opacity:0.1;fill:#000000;fill-opacity:1;fill-rule:nonzero;stroke:none;stroke-width:1px;stroke-linecap:butt;stroke-linejoin:miter;stroke-opacity:1" />
  <path
     d="M 46.347656,18.560547 40,24 35,20 33,21 31,20 17,28 13,25 1.9453125,30.527344 c 0.2570472,0.869832 0.5602629,1.71943 0.9140625,2.542968 L 13,28 l 4,3 14,-8 2,1 2,-1 5,4 6.818359,-5.84375 C 46.709568,20.274715 46.55329,19.408266 46.347656,18.560547 Z M 20,12.999887 20,19.000113 30,18.999773 31,20 l 1,-0.999774 2,0 L 34,13 Z"
     style="fill:#9dc851;fill-opacity:1;fill-rule:nonzero;stroke:none;stroke-width:1px;stroke-linecap:butt;stroke-linejoin:miter;stroke-opacity:1"
     id="path8370" />
  <g
     id="g53">
    <path
       d="m 40.03 7.531 c 3.712 4.084 5.969 9.514 5.969 15.469 0 12.703 -10.297 23 -23 23 c -5.954 0 -11.384 -2.256 -15.469 -5.969 4.178 4.291 10.01 6.969 16.469 6.969 c 12.703 0 23 -10.298 23 -23 0 -6.462 -2.677 -12.291 -6.969 -16.469 z"
       style="opacity:0.1"
       id="path55" />
  </g>
</svg>

<svg xmlns="http://www.w3.org/2000/svg" viewBox="0 0 48 48">
 <defs>
  <linearGradient id="linearGradient3764" x1="1" x2="47" gradientUnits="userSpaceOnUse" gradientTransform="matrix(0,-1,1,0,-1.5e-6,47.999998)">
   <stop style="stop-color:#292929;stop-opacity:1"/>
   <stop offset="1" style="stop-color:#333;stop-opacity:1"/>
  </linearGradient>
 </defs>
 <g>
  <path d="m 36.31 5 c 5.859 4.062 9.688 10.831 9.688 18.5 c 0 12.426 -10.07 22.5 -22.5 22.5 c -7.669 0 -14.438 -3.828 -18.5 -9.688 c 1.037 1.822 2.306 3.499 3.781 4.969 c 4.085 3.712 9.514 5.969 15.469 5.969 c 12.703 0 23 -10.298 23 -23 c 0 -5.954 -2.256 -11.384 -5.969 -15.469 c -1.469 -1.475 -3.147 -2.744 -4.969 -3.781 z m 4.969 3.781 c 3.854 4.113 6.219 9.637 6.219 15.719 c 0 12.703 -10.297 23 -23 23 c -6.081 0 -11.606 -2.364 -15.719 -6.219 c 4.16 4.144 9.883 6.719 16.219 6.719 c 12.703 0 23 -10.298 23 -23 c 0 -6.335 -2.575 -12.06 -6.719 -16.219 z" style="opacity:0.05"/>
  <path d="m 41.28 8.781 c 3.712 4.085 5.969 9.514 5.969 15.469 c 0 12.703 -10.297 23 -23 23 c -5.954 0 -11.384 -2.256 -15.469 -5.969 c 4.113 3.854 9.637 6.219 15.719 6.219 c 12.703 0 23 -10.298 23 -23 c 0 -6.081 -2.364 -11.606 -6.219 -15.719 z" style="opacity:0.1"/>
  <path d="m 31.25 2.375 c 8.615 3.154 14.75 11.417 14.75 21.13 c 0 12.426 -10.07 22.5 -22.5 22.5 c -9.708 0 -17.971 -6.135 -21.12 -14.75 a 23 23 0 0 0 44.875 -7 a 23 23 0 0 0 -16 -21.875 z" style="opacity:0.2"/>
 </g>
 <g>
  <path d="m 24 1 c 12.703 0 23 10.297 23 23 c 0 12.703 -10.297 23 -23 23 -12.703 0 -23 -10.297 -23 -23 0 -12.703 10.297 -23 23 -23 z" style="fill:url(#linearGradient3764);fill-opacity:1"/>
 </g>
 <path d="m 21 14 l 0 6 l 10 0 l 1 1 l 1 -1 l 2 0 l 0 -6 l -14 0 z m 11 7 l -14 8 l -4 -3 l -11.482 6.217 c 0.321 0.838 0.689 1.652 1.102 2.439 l 10.381 -5.656 l 4 3 l 14 -8 l 2 1 l 2 -1 l 5 4 l 5.973 -5.119 c -0.045 -0.93 -0.151 -1.843 -0.303 -2.74 l -5.67 4.859 l -5 -4 l -2 1 l -2 -1 z" style="fill:#000;opacity:0.1;fill-opacity:1;stroke:none;fill-rule:nonzero"/>
 <path d="m 46.35 18.561 -6.348 5.439 -5 -4 -2 1 -2 -1 -14 8 -4 -3 -11.05 5.527 c 0.257 0.87 0.56 1.719 0.914 2.543 l 10.141 -5.07 l 4 3 14 -8 2 1 2 -1 5 4 6.818 -5.844 c -0.109 -0.882 -0.265 -1.748 -0.471 -2.596 m -26.348 -5.561 0 6 10 0 1 1 l 1 -1 2 0 l 0 -6" style="fill:#9dc851;fill-opacity:1;stroke:none;fill-rule:nonzero"/>
 <g>
  <path d="m 40.03 7.531 c 3.712 4.084 5.969 9.514 5.969 15.469 0 12.703 -10.297 23 -23 23 c -5.954 0 -11.384 -2.256 -15.469 -5.969 4.178 4.291 10.01 6.969 16.469 6.969 c 12.703 0 23 -10.298 23 -23 0 -6.462 -2.677 -12.291 -6.969 -16.469 z" style="opacity:0.1"/>
 </g>
</svg>
